src/icons/editor/glyph/CellSplitIcon.svg

<svg width="24" height="24" viewBox="0 0 24 24" fill="none" xmlns="http://www.w3.org/2000/svg">
<path fill-rule="evenodd" clip-rule="evenodd" d="M21 3H15C13.8954 3 13 3.89543 13 5V19C13 20.1046 13.8954 21 15 21H21V19H15L15 5L21 5V3ZM2 12L2.00003 12L2.00001 12L3.41423 13.4143L3.41425 13.4142L5.53553 15.5355L6.94975 14.1213L4.82846 12L6.94976 9.87872L5.53555 8.46451L3.41425 10.5858L3.41421 10.5858L2 12ZM21.9497 12L21.9497 12L21.9497 12L20.5355 13.4143L20.5355 13.4142L18.4142 15.5355L17 14.1213L19.1212 12L16.9999 9.87872L18.4142 8.46451L20.5355 10.5858L20.5355 10.5858L21.9497 12ZM9 3H3V5L9 5L9 19H3V21H9C10.1046 21 11 20.1046 11 19V5C11 3.89543 10.1046 3 9 3Z" fill="currentColor"/>
</svg>

<svg xmlns="http://www.w3.org/2000/svg" width="24" height="24" fill="currentColor" viewBox="0 0 24 24">
  <path fill-rule="evenodd" d="M21 3h-6a2 2 0 0 0-2 2v14a2 2 0 0 0 2 2h6v-2h-6V5h6V3ZM2 12l1.414 1.414 2.122 2.122L6.95 14.12 4.828 12 6.95 9.879 5.536 8.465l-2.122 2.12L2 12Zm19.95 0-1.415 1.414-2.12 2.122L17 14.12 19.121 12 17 9.879l1.414-1.414 2.121 2.12L21.95 12ZM9 3H3v2h6v14H3v2h6a2 2 0 0 0 2-2V5a2 2 0 0 0-2-2Z" clip-rule="evenodd"/>
</svg>
